!!!COM: Bach, Johann Sebastian
!!!OPR: Joh. Seb. Bachs vierstimmige Choralges‰nge
!!!XEN: Four-part Chorales
!!!OTL: 123. Lobt Gott, ihr Christen allzugleich
!!!SCT: BWV 376
!!!SCA: Thematisch-systematisches Verzeichnis der musikalischen Werke Johann Sebastian Bach: Bach-Werke-Verzeichnis (Schmieder)
!!!YOR: Bach Gesellschaft Edition xxxix
!!!ENC: Steven Rasmussen
!!!CDT: 1685/3//-1750/7/28/
!!!OCY: Deutschland
!!!YEC: Copyright (c) 1994, 2000 Center for Computer Assisted Research in the Humanities
!!!YEM: Rights to all derivative editions reserved
!!!YEN: United States of America
**kern	**silbe	**kern	**kern	**kern	**silbe
*I:[SOPRANO]	*I:[SOPRANO]	*I:[ALTO]	*I:[TENORE]	*I:[BASSO]	*I:[BASSO]
*clefG2	*	*clefG2	*clefGv2	*clefF4	*
*k[f#c#g#]	*	*k[f#c#g#]	*k[f#c#g#]	*k[f#c#g#]	*
*A:	*	*A:	*A:	*A:	*
*M4/4	*	*M4/4	*M4/4	*M4/4	*
4a	Lobt	4e	4c#	4A	.
=1	=1	=1	=1	=1	=1
4ee	Gott,	8eL	4B	4G#	.
.	.	8f#J	.	.	.
4ee	ihr	4g#	8eL	4E	.
.	.	.	8dJ	.	.
4ee	Chri-	4a	8c#L	8AL	.
.	.	.	8dJ	8BJ	.
4ee	-sten	4a	4e	8c#L	.
.	.	.	.	8AJ	.
=2	=2	=2	=2	=2	=2
4ff#	all-	4a	8dL	4D	.
.	.	.	8c#J	.	.
8eeL	-zu-	4g#	4B	4E	.
8ddJ	.	.	.	.	.
4cc#;	-gleich,	4e;	4A;	4AA;	.
4b	in	4e	4G#	4E	.
=3	=3	=3	=3	=3	=3
8cc#L	sei-	8eL	4A	4A	.
8dd#J	.	8f#J	.	.	.
4ee	-nem	4g#	4B	8G#L	.
.	.	.	.	8AJ	.
8eeL	h√∂ch-	4f#	4B	4B	.
8ff#J	.	.	.	.	.
4dd#	-sten	8g#L	4B	4BB	.
.	.	8aJ	.	.	.
=4	=4	=4	=4	=4	=4
2.ee;	Thron,	2.g#;	2.B;	2.E;	.
4ee	der	4g#	4B	8EL	.
.	.	.	.	8DJ	.
=5	=5	=5	=5	=5	=5
4ee	heut'	4a	4c#	8C#L	.
.	.	.	.	8DJ	.
4ee	auf-	8g#L	8BL	8EL	.
.	.	8f#J	8AJ	8F#J	.
8eeL	-schleusst	4e	4B	8G#L	.
8ddJ	.	.	.	8EJ	.
8cc#L	sein	8eL	4A	4A	.
8ddJ	.	8dJ	.	.	.
=6	=6	=6	=6	=6	=6
4ee	Him-	8c#L	4A	4C#	.
.	.	8AJ	.	.	.
8ddL	-mel-	4f#	4A	4D	.
8cc#J	.	.	.	.	.
4b;	-reich	4g#;	4e;	4E;	.
4ee	und	8cc#L	4G#	4C#	und
.	.	8bJ	.	.	.
=7	=7	=7	=7	=7	=7
4dd	schenkt	4.a	8AL	8F#	schenkt
.	.	.	8BJ	8G#	uns
4cc#	uns	.	8c#L	[4A	sei-
.	.	8g#	8AJ	.	.
4.b	sei-	4f#	4.d	8AL]	.
.	.	.	.	8G#J	.
.	.	4g#	.	8F#L	-nen
8cc#	-nen	.	8c#	8E#J	.
=8	=8	=8	=8	=8	=8
8aL	Sohn,	8f#L	4c#	4F#	.
8b	.	8g#	.	.	.
8cc#	.	8a	4F#	8EL	.
8ddJ	.	8bJ	.	8DJ	.
4ee;	.	4cc#;	4G#;	4C#;	.
4ee	und	4f#	4c#	4A#	.
=9	=9	=9	=9	=9	=9
4dd	schenkt	8f#L	8dL	4B	.
.	.	8g#J	8eJ	.	.
4cc#	uns	4a	4f#	8F#L	.
.	.	.	.	8EJ	.
4b	sei-	4a	4f#	8DL	.
.	.	.	.	8BBJ	.
4b	-nen	4g#	8eL	4E	.
.	.	.	8dJ	.	.
=10	=10	=10	=10	=10	=10
2.a;	Sohn.	2.e;	2.c#;	2.AA;	.
==|!	==|!	==|!	==|!	==|!	==|!
*-	*-	*-	*-	*-	*-
!!!RWG: Key is interpreted using the Humdrum key tool.
!!!END: 1994/07/18
!!!EMD: Converted from MuseData to Humdrum Dec 19, 2000, by Andreas Kornstaedt using muse2kern.
!!!EED: Craig Stuart Sapp
!!!EEV: 2024/03/31
!!!ONB: Some non-unicode characters
